X:1
T:[ID 6-18]
T:[ID 6-18]
T:Bezeichnung standardisiert: J\"ager Sesken; J\"ager 6ken 12. In dieser Quelle auch als: Jager Sesken
T:Urheber unbekannt Datum in der hier transkribierten schriftlichen Quelle: 1775
C:Urheber unbekannt
C:Datum in der hier transkribierten schriftlichen Quelle: 1775
L:1/8
M:2/4
K:D
V:1 treble 
V:1
 A/G/ | FF/G/ FA | d/c/d/e/ de | f>g fe | d2 AA/G/ | FF/G/ FA | d/c/d/e/ de | f>g fe | d3 :: d | %10
 ff/g/ ff | f2 c2 | d/c/d/e/ fe/d/ | c3 A/G/ | FFAA | dd AA/G/ | FF/d/ cc/e/ | dd/e/ cc | %18
 dc/d/ ed/e/ | f>g fe | d/f/d/F/ c/e/G/E/ | F3 :| %22

